X: 402
T: the Lady of the Lake   #2
%T: Bean Uasal an Loca
%T: Billy the Barber (Shaved His Father)
%T: Will you Lie Over Close to the Wall
B: Francis O'Neill: "The Dance Music of Ireland" (1907) #402
R: single jig
%S: s:2 b:12(6+6)
Z: Frank Nordberg - http://www.musicaviva.com
F: http://www.musicaviva.com/abc/tunes/ireland/oneill-1001/0402/oneill-1001-0402-1.abc
M: 6/8
L: 1/8
K: G
"^A"[|] A \
|:   (B/c/BA) G2D | (E2D) G2A |\
[1,3 (B/c/BA) G2A | Bcd edc :|\
[2,4 B2d A2c | BGG G2H :|
"^B"|: A \
|:   B3 (B/c/BA) | Bdd def |\
[1,3 g2f e2d | dBG ABc :|\
[2,4 g2e a2g | fdd "_D.C."d2 :|
%absent_minded_man.abc (Why was this here? [JC])
